client/assets/icons/trashcan_icon.svg

<svg style="fill:#fff" class="icon icon-remove" width="16" height="16" viewBox="0 0 16 16" fill="none" xmlns="http://www.w3.org/2000/svg">
  <path fill-rule="evenodd" clip-rule="evenodd" d="M2.07201 5.3474C1.92659 5.30501 1.7243 5.29746 1 5.29746C0.585786 5.29746 0.25 4.96167 0.25 4.54746C0.25 4.13325 0.585786 3.79746 1 3.79746C1.03578 3.79746 1.07107 3.79744 1.10587 3.79741C1.17406 3.79736 1.24039 3.79732 1.30498 3.79746H14.695C14.7596 3.79732 14.8259 3.79736 14.8941 3.79741C14.9289 3.79744 14.9642 3.79746 15 3.79746C15.4142 3.79746 15.75 4.13325 15.75 4.54746C15.75 4.96167 15.4142 5.29746 15 5.29746C14.2757 5.29746 14.0734 5.30501 13.928 5.3474C13.5179 5.46693 13.1972 5.78759 13.0777 6.19768C13.0353 6.34309 13.0278 6.54538 13.0278 7.26968L13.0278 11.052C13.0278 11.9505 13.0278 12.6997 12.9479 13.2945C12.8635 13.9223 12.6778 14.4891 12.2223 14.9446C11.7669 15.4 11.2001 15.5857 10.5723 15.6701C9.97748 15.7501 9.22826 15.7501 8.32977 15.75H7.67023C6.77175 15.7501 6.02253 15.7501 5.42774 15.6701C4.79995 15.5857 4.23315 15.4 3.77768 14.9446C3.32221 14.4891 3.13654 13.9223 3.05213 13.2945C2.97217 12.6997 2.97219 11.9505 2.97222 11.052L2.97222 7.26968C2.97222 6.54538 2.96467 6.34309 2.92229 6.19768C2.80276 5.78759 2.4821 5.46693 2.07201 5.3474ZM11.8282 5.29746H4.17177C4.2495 5.44979 4.31355 5.61047 4.36236 5.77793C4.47299 6.15749 4.47268 6.59628 4.47227 7.16381C4.47225 7.19861 4.47222 7.2339 4.47222 7.26968V11C4.47222 11.964 4.47382 12.6116 4.53876 13.0946C4.6008 13.5561 4.70802 13.7536 4.83834 13.8839C4.96866 14.0142 5.16615 14.1215 5.62761 14.1835C6.11065 14.2484 6.75821 14.25 7.72222 14.25H8.27778C9.24179 14.25 9.88935 14.2484 10.3724 14.1835C10.8338 14.1215 11.0313 14.0142 11.1617 13.8839C11.292 13.7536 11.3992 13.5561 11.4612 13.0946C11.5262 12.6116 11.5278 11.964 11.5278 11V7.26968C11.5278 7.2339 11.5278 7.19861 11.5277 7.16381C11.5273 6.59628 11.527 6.15749 11.6376 5.77793C11.6865 5.61047 11.7505 5.44979 11.8282 5.29746Z" fill=""></path>
  <path fill-rule="evenodd" clip-rule="evenodd" d="M10.0091 0.846375C9.57865 0.51912 8.93067 0.25 7.9997 0.25C7.06869 0.25 6.42069 0.5192 5.99019 0.846535C5.77994 1.00641 5.63307 1.17146 5.53475 1.30603C5.48566 1.37321 5.44862 1.43287 5.42164 1.48072C5.40814 1.50467 5.39712 1.52575 5.38834 1.54343C5.38394 1.55227 5.3801 1.56028 5.37678 1.56739L5.37219 1.57738L5.37018 1.58185L5.36925 1.58396L5.3688 1.58498C5.36858 1.58548 5.36836 1.58598 6.05526 1.8871L5.36836 1.58598C5.20206 1.96534 5.37477 2.40769 5.75413 2.57399C6.12475 2.73647 6.55548 2.57537 6.73021 2.21413C6.73273 2.21001 6.73784 2.20199 6.74591 2.19095C6.76911 2.15919 6.81669 2.10247 6.8981 2.04056C7.05094 1.92435 7.37515 1.75 7.9997 1.75C8.62429 1.75 8.94853 1.92432 9.10137 2.04051C9.18278 2.1024 9.23035 2.1591 9.25355 2.19084C9.2616 2.20187 9.26672 2.20988 9.26923 2.21399C9.444 2.5752 9.87474 2.73626 10.2453 2.57375C10.6247 2.40741 10.7974 1.96505 10.631 1.5857L9.94415 1.88689C10.631 1.5857 10.6308 1.5852 10.6306 1.5847L10.6301 1.58368L10.6292 1.58158L10.6272 1.5771L10.6226 1.56711C10.6193 1.56001 10.6154 1.552 10.611 1.54315C10.6022 1.52547 10.5912 1.5044 10.5777 1.48045C10.5507 1.4326 10.5137 1.37295 10.4646 1.30578C10.3663 1.17123 10.2194 1.00621 10.0091 0.846375Z" fill=""></path>
</svg>

<svg style="fill:#fff" class="icon icon-remove" width="16" height="16" fill="none" xmlns="http://www.w3.org/2000/svg"><path fill-rule="evenodd" clip-rule="evenodd" d="M2.072 5.347c-.145-.042-.348-.05-1.072-.05a.75.75 0 0 1 0-1.5 122.64 122.64 0 0 0 .305 0h13.39a69.203 69.203 0 0 1 .305 0 .75.75 0 0 1 0 1.5c-.724 0-.927.008-1.072.05-.41.12-.73.44-.85.85-.043.146-.05.348-.05 1.073v3.782c0 .899 0 1.648-.08 2.242-.085.628-.27 1.195-.726 1.65-.455.456-1.022.642-1.65.726-.595.08-1.344.08-2.242.08h-.66c-.898 0-1.647 0-2.242-.08-.628-.084-1.195-.27-1.65-.725-.456-.456-.641-1.023-.726-1.65-.08-.595-.08-1.345-.08-2.243V7.27c0-.725-.007-.927-.05-1.072a1.25 1.25 0 0 0-.85-.85Zm9.756-.05H4.172c.078.153.142.313.19.48.111.38.11.82.11 1.387V11c0 .964.002 1.612.067 2.095.062.461.169.659.3.789.13.13.327.237.789.3.483.064 1.13.066 2.094.066h.556c.964 0 1.611-.002 2.094-.066.462-.063.66-.17.79-.3.13-.13.237-.328.3-.79.064-.482.066-1.13.066-2.094V7.164c0-.568-.001-1.007.11-1.386.049-.168.113-.328.19-.48ZM10.01.846C9.578.52 8.93.25 8 .25c-.931 0-1.58.27-2.01.597-.21.16-.357.324-.455.459a1.776 1.776 0 0 0-.158.261l-.005.01-.002.005v.002l-.001.001.686.302-.687-.301a.75.75 0 0 0 1.362.628.75.75 0 0 1 .168-.174c.153-.116.477-.29 1.102-.29.624 0 .949.174 1.101.29a.75.75 0 0 1 .168.174.75.75 0 0 0 1.362-.628l-.687.3.687-.301v-.001l-.002-.002-.002-.005-.004-.01a1.035 1.035 0 0 0-.045-.087 1.776 1.776 0 0 0-.113-.174 2.243 2.243 0 0 0-.456-.46Z"/></svg>
